X: 10364
Q: "Very slow."
M: 2/4
L: 1/16
K: A
[|\
{c}TB4 A2F2 | A4 {c}Ha4 |\
({c}e4 e)(dcB) | A4 (A3B) | A4 (F2E2) |]|\
!p![f3d3][fd] {g}a4 | "^cres."[f3d3][fd] {c}a4 |\
a3g {g}a4 | ([f3d3][ec]) [e4c4] |\
(c3d) [e4c4] | [f2d2][e2c2] [e4c4] |
(ABcd efga) |\
(e3c) [e4c4] | (f3c) {c}a4 |\
{c}TB4 (A2F2) | A4 {c}Ha4 |\
({c}e4 e)(dcB) | A4 (A2B2) | A4 F2E2 |]



